svg/view_week_outline.svg

<svg xmlns="http://www.w3.org/2000/svg" viewBox="0 0 24 24"><path d="M21 4H3c-.55 0-1 .45-1 1v14c0 .55.45 1 1 1h18c.55 0 1-.45 1-1V5c0-.55-.45-1-1-1M8 18H4V6h4zm6 0h-4V6h4zm6 0h-4V6h4z"/></svg>

<?xml version="1.0" encoding="UTF-8"?><!DOCTYPE svg PUBLIC "-//W3C//DTD SVG 1.1//EN" "http://www.w3.org/Graphics/SVG/1.1/DTD/svg11.dtd"><svg xmlns="http://www.w3.org/2000/svg" xmlns:xlink="http://www.w3.org/1999/xlink" version="1.1" id="mdi-view-week-outline" width="24" height="24" viewBox="0 0 24 24"><path d="M21 4H3C2.45 4 2 4.45 2 5V19C2 19.55 2.45 20 3 20H21C21.55 20 22 19.55 22 19V5C22 4.45 21.55 4 21 4M8 18H4V6H8V18M14 18H10V6H14V18M20 18H16V6H20V18Z" /></svg>
